!!!OTL: WER LIEBEN WILL MUSS LEIDEN
!!!ARE: Europa, Mitteleuropa, Deutschland; France, Elsass
!!!SCT: E0617B
!!!YEM: Copyright 1995, estate of Helmut Schaffrath.
**kern
*ICvox
*Ivox
*M3/4
*k[f#c#g#]
*A:
{4e
=1
2a
4c#
=2
2f#
4e
=3
4e
4d
4r
=4
2r}
{4g#
=5
2b
4e
=6
2f#
4g#
=7
2a
4r
=8
2r}
{4e
=9
2cc#
4b
=10
2a
4g#
=11
4b
4f#
4r
=12
2r}
{8a
8f#
=13
4e
4g#
4b
=14
4dd
4cc#
4b
=15
2a
4b
=16
2cc#}
{4e
=17
2cc#
4b
=18
2a
4g#
=19
4b
4f#
4r
=20
2r}
{8a
8f#
=21
4e
4g#
4b
=22
4dd
4cc#
4b
=23
[2.a
=24
4a]
4r}
==
!!!AGN: Liebes - Lied
!!!ONB: ESAC (Essen Associative Code) Database: ERK2
!!!AMT: simple triple
!!!AIN: vox
!!!EED: Helmut Schaffrath
!!!EEV: 1.0
*-
